!!!OTL: 641. Der kleine Kladrian.
!!!ARE: Europa, Mitteleuropa, Deutschland, Bergisches Land
!!!SCT: K0641
!!!TXL: @@DE
!!!YEM: Copyright 1995, estate of Helmut Schaffrath.
**kern	**text
*clefG2	*
*M2/4	*
*k[f#]	*
*G:	*
=1	=1
{8g	O
8g	du
8f#	klei-
8d	-ner
=2	=2
8g	Kla-
8g	-dri-
8d}	-an,
{8d	was
=3	=3
8g	machſt
8g	du
8f#	in
8a	mei'm
=4	=4
4g	Gärtchen?
8d	.
8r}	.
=5	=5
{8g	Pflückſt
8g	mir
8f#	all
8d	die
=6	=6
8a	Blümchen
8a	.
4a}	ab,
=7	=7
{8g	machſt
8g	mir
8f#	viel
8a	ʒu
=8	=8
4g	ſchaffen!
8d}	.
=||	=||
{8d	Pa-
=9	=9
8g	-pa
8g	der
8d	keift,
8d	Ma-
=10	=10
8g	-ma
8g	die
4d}	ſchlägt!
=11	=11
{8g	O
8g	du
8f#	klei-
8d	-ner
=12	=12
8a	Kla-
8a	-dri-
8a}	-an,
{8a	was
=13	=13
8g	machſt'
8g	in
8f#	mei-
8a	-nem
=14	=14
4g	Gärtchen?
8d	.
8r}	.
==	==
!!!AGN: Kinder -, Tier - Lied
!!!ONB: ESAC (Essen Associative Code) Database: KINDER
!!!AMT: simple duple
!!!AIN: vox
!!!EED: Helmut Schaffrath
!!!EEV: 1.0
!!Aus dem Bergischen. Erk I. 3, 19.
!!!GTL: VI. Das Kind im Verkehr mit der Natur. A. Verkehr mit der Thierwelt. (Grussliedchen an die Thiere.)
!!!URL-scan: https://archive.org/details/DeutschesKinderliedUndKinderspiel/page/139/mode/1up
!!!ENC: Anna Maria Matuszewska
!!!EEV: 2024/30/08
*-	*-
